X: 1
T: McElroy's Fancy
T: The Glenside
C: Trad
R: Polka
M: 2/4
L: 1/8
K: Edor
Q: 1/4=140
Z: ABC transcription by Verge Roller
r: 32
|: A | "Em" B2 BA | "D" F/2G/2A DA | "Em" B2 BA | "D" B/2c/2d ed |
"Em" B2 BA | "D" F/2G/2A D>E | "D" FD AF | "Em" E2 E :|
|: E/A/ | "Em" Be e>f | "Em" ed BA | "Em" Be ef | "Em"  ed Bc |
"D" d>e dB | "D" AF D>E | "D" FD AF | "Em" E2 E :|
